X: 31279
T: Paddy In London
R: jig
M: 6/8
K: Dmajor
(G|F)DF ABc|ded dz2|AGF G2A|BGE E2G|
FDF ABc|ded dz2|AGF BAG|FDD D2:|

